common/src/main/resources/icons/vcs/diff_frame32.svg

<svg xmlns="http://www.w3.org/2000/svg" width="32" height="32" viewBox="0 0 24 24"><path fill="#F5776C" d="M19 3h-5v2h5v13l-5-6v9h5a2 2 0 0 0 2-2V5a2 2 0 0 0-2-2m-9 15H5l5-6m0-9H5c-1.11 0-2 .89-2 2v14a2 2 0 0 0 2 2h5v2h2V1h-2z"/></svg>

<!--
  - The MIT License (MIT)
  -
  - Copyright (c) 2015-2022 Elior "Mallowigi" Boukhobza
  -
  - Permission is hereby granted, free of charge, to any person obtaining a copy
  - of this software and associated documentation files (the "Software"), to deal
  - in the Software without restriction, including without limitation the rights
  - to use, copy, modify, merge, publish, distribute, sublicense, and/or sell
  - copies of the Software, and to permit persons to whom the Software is
  - furnished to do so, subject to the following conditions:
  -
  - The above copyright notice and this permission notice shall be included in all
  - copies or substantial portions of the Software.
  -
  - THE SOFTWARE IS PROVIDED "AS IS", WITHOUT WARRANTY OF ANY KIND, EXPRESS OR
  - IMPLIED, INCLUDING BUT NOT LIMITED TO THE WARRANTIES OF MERCHANTABILITY,
  - FITNESS FOR A PARTICULAR PURPOSE AND NONINFRINGEMENT. IN NO EVENT SHALL THE
  - AUTHORS OR COPYRIGHT HOLDERS BE LIABLE FOR ANY CLAIM, DAMAGES OR OTHER
  - LIABILITY, WHETHER IN AN ACTION OF CONTRACT, TORT OR OTHERWISE, ARISING FROM,
  - OUT OF OR IN CONNECTION WITH THE SOFTWARE OR THE USE OR OTHER DEALINGS IN THE
  - SOFTWARE.
  -
  -
  -->


<svg xmlns="http://www.w3.org/2000/svg" version="1.1" width="32px" height="32px" viewBox="0 0 24 24">
    <path fill="#F5776C"
          d="M19,3H14V5H19V18L14,12V21H19A2,2 0 0,0 21,19V5C21,3.89 20.1,3 19,3M10,18H5L10,12M10,3H5C3.89,3 3,3.89 3,5V19A2,2 0 0,0 5,21H10V23H12V1H10V3Z" />
</svg>
